images/icon/sidebar_account.svg

<svg width="30" height="30" viewBox="0 0 30 30" fill="none" xmlns="http://www.w3.org/2000/svg">
<path d="M10.4448 22.2056C10.663 21.9875 10.8812 21.6426 11.5709 21.6426C12.2606 21.6426 19.1646 21.6426 19.8543 21.6426C20.4806 21.6426 23.9221 18.1941 24.3584 17.7015C24.7807 17.23 26.6527 14.4149 27.1735 13.1974C26.8498 12.761 25.963 12.3951 24.9214 12.6343C23.9291 12.8666 23.3379 13.5774 22.6694 14.8864L20.0865 16.2236" stroke="#544545" stroke-width="1.2" stroke-miterlimit="22.9256" stroke-linecap="round" stroke-linejoin="round"/>
<path d="M13.6611 18.2646C13.6611 18.2646 18.1652 18.2646 18.7282 18.2646C20.9803 18.2646 20.9803 15.4495 18.7282 15.4495C18.1652 15.4495 16.9125 15.4495 15.3501 15.4495C14.8786 15.4495 13.9989 14.3235 13.2599 14.3235C12.9292 14.3235 11.2049 14.3235 10.4448 14.3235C9.68477 14.3235 8.74171 14.9428 8.19277 15.4495C7.34824 16.2941 5.86328 17.7016 5.86328 17.7016" stroke="#544545" stroke-width="1.2" stroke-miterlimit="22.9256" stroke-linecap="round" stroke-linejoin="round"/>
<path d="M4.81663 16.5759L2 19.3926L8.19559 25.5882L11.0122 22.7715L4.81663 16.5759Z" stroke="#544545" stroke-width="1.2" stroke-miterlimit="22.9256" stroke-linecap="round" stroke-linejoin="round"/>
<path d="M4.81445 19.3906L5.94049 20.5167" stroke="#544545" stroke-width="1.2" stroke-miterlimit="22.9256" stroke-linecap="round" stroke-linejoin="round"/>
<path d="M22.6695 2.5L17.0393 8.13018L14.7872 5.87811L12.5352 8.13018L17.0393 12.6343L24.9216 4.75207L22.6695 2.5Z" stroke="#E60000" stroke-width="1.2" stroke-miterlimit="22.9256" stroke-linecap="round" stroke-linejoin="round"/>
</svg>

<svg width="30" height="30" fill="none" xmlns="http://www.w3.org/2000/svg"><path d="M10.445 22.206c.218-.218.436-.563 1.126-.563h8.283c.627 0 4.068-3.449 4.504-3.942.423-.471 2.295-3.286 2.816-4.504-.324-.436-1.211-.802-2.253-.563-.992.233-1.583.943-2.252 2.252l-2.582 1.338" stroke="#544545" stroke-width="1.2" stroke-miterlimit="22.926" stroke-linecap="round" stroke-linejoin="round"/><path d="M13.661 18.265h5.067c2.252 0 2.252-2.816 0-2.816H15.35c-.471 0-1.351-1.126-2.09-1.126h-2.815c-.76 0-1.703.62-2.252 1.127-.845.844-2.33 2.252-2.33 2.252" stroke="#544545" stroke-width="1.2" stroke-miterlimit="22.926" stroke-linecap="round" stroke-linejoin="round"/><path d="M4.817 16.576L2 19.393l6.196 6.195 2.816-2.817-6.195-6.195zm-.003 2.814l1.126 1.127" stroke="#544545" stroke-width="1.2" stroke-miterlimit="22.926" stroke-linecap="round" stroke-linejoin="round"/><path d="M22.67 2.5l-5.63 5.63-2.253-2.252-2.252 2.252 4.504 4.504 7.883-7.882L22.669 2.5z" stroke="#E60000" stroke-width="1.2" stroke-miterlimit="22.926" stroke-linecap="round" stroke-linejoin="round"/></svg>
